X: 25745
T: Mary O'Neill's
R: reel
M: 4/4
K: Dmajor
|:F2 FA AFDE|F2 EG FDDE|F2 FA AFDE|FDEF D4:|
|:dBAG FGAB|A2 ed cdec|dBAG FGAB|AFEG FDD2:|

